X:1
T:Poi che da voi ben mio
T:Luca Marenzio
T:Source : Il quinto libro delle Villanelle a tre voci---Venetia---Herede di G.Scotto---1587. Editor : André Vierendeels (08/05/17).
T:Notes : Original clefs : G2, C1, F3 Editorial accidentals above the staff Music collected by Attilio Gualtieri
T:Poi che da voi ben mio
T:©
T:©
C:Luca Marenzio
Z:©
%%score [ 1 2 3 ]
L:1/8
Q:1/4=120
M:4/4
K:F
V:1 treble nm="Soprano 1" snm="S 1"
V:2 treble nm="Soprano 2" snm="S 2"
V:3 bass nm="Bass" snm="B"
V:1
"^1)" G8 | B8 | c8 | d4 z2 d2 | f4 z2 d2 | f2 e2 d2 c2 | c8 | c2 f2 e2 g2- | gg f2 e4 | d8 :: %10
w: Poi|che|da|voi ben|mio, ben|mio son fat- to|pri-|vo, son piu mor-|* to che vi-|vo,|
w: Dhe|chi|mi|fa lon-|tan, lon-|tan dal ca- ro|be-|ne, fra tan- te'an-|* go- sci'e pe-|ne,|
 z2 d2 d2 d2 | d8 | e2 e2 f4 | f2 d2 c4 | B8 | z4 d4- | d4 c2 B2 | A8 | G8 :| %19
w: e nel pen-|sar'|al mio ca-|ro te- so-|ro,|ahi|_ ch'io mi|mo-|ro.|
w: co- me vi-|vrai|chi ti dar|à a- i-|ta?|mi-|* ser a|vi-|ta.|
V:2
"^2)""^1)" z4 G4- | G4 B4- | B4 A4 | B4 z2 B2 | d4 z2 B2 | d2 c2 B2 A2 | A8 | A2 d2 c2 B2- | %8
w: Poi|_ che|_ da|voi ben|mio, ben|mio son fat- to|pri-|vo, son piu mor-|
w: So-|* le'a|_ vi-|ci- no'a|voi, a|voi con mio con-|ten-|to, tem- prar il|
 BB d2 ^c4 | d8 :: z2 =B2 B2 B2 | =B8 | c2 c2 d4 | d2 B2 A4 | B8 | z4 B4- | B4 A2 G2 | ^F2 G4 F2 | %18
w: * to che vi-|vo,|e nel pen-|sar'|al mio ca-|ro te- so-|ro,|ahi|_ ch'io mi|mo- * *|
w: _ mio tor- men-|to,|mo che ne|son|pri- va- to|gri- do for-|te,|ahi|_ du- ra|sor- * *|
 G8 :| %19
w: ro.|
w: te.|
V:3
"^3)""^1)""^4)" G,8 | G,8 | F,8 | B,,2 B,2 B,4 | z2 B,2 B,4- | B,2 A,2 G,2 F,2 | F,8 | %7
w: Poi|che|da|voi ben mio,|ben mio|_ son fat- to|pri-|
w: Dun-|que|per|non sen- tir,|sen- tir|_ pe- na'e mar-|ti-|
 F,2 B,2 A,2 G,2- | G,G, D,2 A,4 | D,8 :: G,4 G,2 G,2 | G,8 | C,2 C,2 B,,4 |"^b" D,3 E, F,4 | %14
w: vo, son piu mor-|* to che vi-|vo,|e nel pen-|sar'|al mio ca-|ro te- so-|
w: re, me- glio'e cer-|* to mo- ri-|re,|per- che chi|vi-|ver puo con|gran do- lo-|
 B,,8 | B,8- | B,4 F,2 G,2 | D,8 | G,8 :| %19
w: ro,|ahi|_ ch'io mi|mo-|ro.|
w: re,|sen-|* za'il suo|co-|re.|

